src/components/00-materials/images-raw/Register.svg

<svg width="96" height="96" viewBox="0 0 96 96" fill="none" xmlns="http://www.w3.org/2000/svg">
<path d="M60.55 21.3099L43.34 43.0799L35.46 32.8299C35.2079 32.4999 34.8899 32.2259 34.5263 32.0251C34.1628 31.8244 33.7615 31.7013 33.3479 31.6637C32.9342 31.6261 32.5173 31.6748 32.1235 31.8067C31.7297 31.9386 31.3676 32.1508 31.06 32.4299C30.4349 33.0073 30.0528 33.8009 29.9916 34.6497C29.9303 35.4985 30.1943 36.3387 30.73 36.9999L40.2 49.3299C40.5743 49.8062 41.0519 50.1912 41.5967 50.456C42.1415 50.7207 42.7393 50.8583 43.345 50.8583C43.9507 50.8583 44.5486 50.7207 45.0934 50.456C45.6382 50.1912 46.1157 49.8062 46.49 49.3299L65.27 25.4699C65.7957 24.8095 66.0528 23.975 65.9897 23.1333C65.9267 22.2916 65.5482 21.5046 64.93 20.9299C64.6241 20.653 64.2644 20.4421 63.8733 20.3105C63.4823 20.1789 63.0683 20.1294 62.6572 20.165C62.2461 20.2007 61.8468 20.3208 61.4842 20.5178C61.1217 20.7148 60.8036 20.9844 60.55 21.3099V21.3099Z" stroke="#00008F" stroke-width="2" stroke-linecap="round" stroke-linejoin="round"/>
<path d="M84 14H12C9.79086 14 8 15.7909 8 18V64.88C8 67.0891 9.79086 68.88 12 68.88H84C86.2091 68.88 88 67.0891 88 64.88V18C88 15.7909 86.2091 14 84 14Z" stroke="#00008F" stroke-width="2" stroke-linecap="round" stroke-linejoin="round"/>
<path d="M88 56.9502H8M51.53 62.9102H44.47M31.53 82.0002C37.41 82.0002 39.76 68.8802 39.76 68.8802M64.47 82.0002C58.59 82.0002 56.24 68.8802 56.24 68.8802M26.82 82.0002H69.18" stroke="#00008F" stroke-width="2" stroke-linecap="round" stroke-linejoin="round"/>
</svg>

<svg width="96" height="96" viewBox="0 0 96 96" fill="none" xmlns="http://www.w3.org/2000/svg"><path d="M60.55 21.31L43.34 43.08l-7.88-10.25a3 3 0 00-4.4-.4 3.35 3.35 0 00-.33 4.57l9.47 12.33a4 4 0 006.29 0l18.78-23.86a3.35 3.35 0 00-.34-4.54 3 3 0 00-4.38.38v0z" stroke="#00008F" stroke-width="2" stroke-linecap="round" stroke-linejoin="round"/><path d="M84 14H12a4 4 0 00-4 4v46.88a4 4 0 004 4h72a4 4 0 004-4V18a4 4 0 00-4-4z" stroke="#00008F" stroke-width="2" stroke-linecap="round" stroke-linejoin="round"/><path d="M88 56.95H8m43.53 5.96h-7.06M31.53 82c5.88 0 8.23-13.12 8.23-13.12M64.47 82c-5.88 0-8.23-13.12-8.23-13.12M26.82 82h42.36" stroke="#00008F" stroke-width="2" stroke-linecap="round" stroke-linejoin="round"/></svg>
